icons/svg/placeholder_24.svg

<?xml version="1.0" encoding="UTF-8"?>
<svg width="24px" height="24px" viewBox="0 0 24 24" version="1.1" xmlns="http://www.w3.org/2000/svg" xmlns:xlink="http://www.w3.org/1999/xlink">
    <!-- Generator: Sketch 57.1 (83088) - https://sketch.com -->
    <title>placeholder_24</title>
    <desc>Created with Sketch.</desc>
    <g id="Icons-Webex" stroke="none" stroke-width="1" fill="none" fill-rule="evenodd">
        <g id="content/placeholder_24" fill="#171B1F">
            <path d="M3,0 L21,0 C22.6568542,0 24,1.34314575 24,3 L24,21 C24,22.6568542 22.6568542,24 21,24 L3,24 C1.34314575,24 0,22.6568542 0,21 L0,3 C0,1.34314575 1.34314575,0 3,0 Z M3,1 C1.8954305,1 1,1.8954305 1,3 L1,21 C1,22.1045695 1.8954305,23 3,23 L21,23 C22.1045695,23 23,22.1045695 23,21 L23,3 C23,1.8954305 22.1045695,1 21,1 L3,1 Z" id="fill"></path>
        </g>
    </g>
</svg>

<svg width="24" height="24" xmlns="http://www.w3.org/2000/svg"><path d="M3 0h18a3 3 0 013 3v18a3 3 0 01-3 3H3a3 3 0 01-3-3V3a3 3 0 013-3zm0 1a2 2 0 00-2 2v18a2 2 0 002 2h18a2 2 0 002-2V3a2 2 0 00-2-2H3z" fill="#171B1F" fill-rule="evenodd"/></svg>
